svgs/duotone/bacteria.svg

<svg xmlns="http://www.w3.org/2000/svg" viewBox="0 0 640 512"><!-- Font Awesome Pro 6.0.0-alpha2 by @fontawesome - https://fontawesome.com License - https://fontawesome.com/license (Commercial License) --><defs><style>.fa-secondary{opacity:.4}</style></defs><path d="M416 352C398.326 352 384 366.326 384 384C384 401.672 398.326 416 416 416C433.672 416 448 401.672 448 384C448 366.326 433.672 352 416 352ZM361.105 65.26L349.765 68.617C341.478 53.129 328.777 40.758 313.389 33.049L316.226 22.201C318.709 12.725 313.004 3.039 303.482 0.58C293.916 -1.902 284.232 3.801 281.762 13.268L278.941 24.047C273.433 23.859 267.832 24.199 262.195 25.148C250.83 27.041 239.961 30.223 229.096 33.389L225.717 23.934C222.412 14.709 212.219 9.826 202.965 13.174C193.699 16.453 188.863 26.588 192.156 35.822L195.654 45.615C180.248 52.27 165.57 60.074 151.709 69.186L145.387 60.758C139.496 52.918 128.34 51.314 120.455 57.156C112.57 63.02 110.957 74.125 116.838 81.975L123.295 90.586C110.631 101.363 98.965 113.121 88.336 125.916L79.519 119.502C71.588 113.707 60.443 115.428 54.633 123.357C48.824 131.266 50.562 142.357 58.508 148.131L67.392 154.596C58.5 168.479 50.855 183.119 44.406 198.506L33.933 194.916C24.599 191.73 14.498 196.637 11.297 205.906C8.086 215.164 13.037 225.252 22.338 228.439L32.67 231.98C29.879 241.941 26.877 251.822 25.148 262.195C24.074 268.639 23.943 274.99 24.332 281.242L12.748 284.668C3.308 287.449 -2.061 297.318 0.744 306.703C3.041 314.414 10.127 319.391 17.803 319.391C19.484 319.391 21.189 319.16 22.883 318.652L34.148 315.322C42.234 330.477 54.824 342.871 70.543 350.75L67.656 361.812C65.185 371.291 70.902 380.963 80.424 383.434C81.92 383.814 83.428 384 84.912 384C92.832 384 100.056 378.713 102.144 370.725L105.008 359.754C106.035 359.791 107.082 360.012 108.105 360.012C124.742 360.012 140.426 354.838 153.763 346.125L162.353 354.934C165.844 358.512 170.482 360.312 175.133 360.312C179.609 360.312 184.074 358.65 187.541 355.303C194.603 348.48 194.765 337.26 187.912 330.23L178.771 320.857C184.625 311.637 188.943 301.256 190.851 289.805C191.74 284.473 193.162 279.34 194.719 274.275L203.752 278.504C206.199 279.646 208.773 280.188 211.314 280.188C218.004 280.188 224.406 276.426 227.443 269.996C231.631 261.141 227.805 250.58 218.898 246.412L210.101 242.297C210.769 241.309 211.299 240.219 211.996 239.25C214.396 235.916 217.148 232.896 219.873 229.842C223.496 225.768 227.377 221.984 231.517 218.436C234.73 215.709 237.959 213.008 241.461 210.621C242.58 209.852 243.783 209.201 244.93 208.467L248.851 217.322C251.797 223.947 258.326 227.896 265.168 227.896C267.568 227.896 270.004 227.412 272.346 226.395C281.346 222.436 285.428 211.977 281.461 203.008L277.441 193.93C281.519 192.795 285.56 191.559 289.805 190.852C302.404 188.754 313.715 183.758 323.568 176.947L333.564 185.959C336.972 189.041 341.252 190.553 345.519 190.553C350.367 190.553 355.203 188.59 358.717 184.723C365.326 177.463 364.769 166.254 357.476 159.686L347.763 150.93C356.254 136.754 360.508 120.162 359.406 102.754L371.263 99.242C380.691 96.449 386.06 86.58 383.254 77.195C380.472 67.811 370.568 62.488 361.105 65.26ZM128 256C110.326 256 96 241.672 96 224C96 206.326 110.326 192 128 192C145.672 192 160 206.326 160 224C160 241.672 145.672 256 128 256ZM208 160C199.164 160 192 152.836 192 144C192 135.162 199.164 128 208 128S224 135.162 224 144C224 152.836 216.836 160 208 160Z" class="fa-secondary"/><path d="M615.668 230.756L627.252 227.332C636.691 224.551 642.061 214.68 639.256 205.295C636.959 197.584 629.873 192.609 622.197 192.609C620.516 192.609 618.811 192.84 617.117 193.348L605.852 196.678C597.764 181.523 585.174 169.127 569.455 161.248L572.344 150.186C574.812 140.709 569.096 131.035 559.576 128.564C558.08 128.184 556.572 128 555.088 128C547.168 128 539.943 133.287 537.855 141.275L534.99 152.246C533.963 152.209 532.918 151.988 531.895 151.988C515.258 151.988 499.574 157.162 486.236 165.875L477.646 157.066C474.156 153.488 469.518 151.688 464.867 151.688C460.391 151.688 455.926 153.35 452.459 156.697C445.396 163.52 445.234 174.74 452.088 181.77L461.229 191.143C455.375 200.363 451.057 210.744 449.148 222.195C448.26 227.525 446.838 232.658 445.281 237.723L436.246 233.496C433.801 232.354 431.225 231.811 428.686 231.811C421.994 231.811 415.594 235.574 412.555 242.004C408.369 250.857 412.195 261.42 421.102 265.588L429.898 269.703C429.23 270.691 428.703 271.781 428.006 272.748C425.59 276.104 422.82 279.148 420.074 282.221C416.473 286.268 412.611 290.025 408.496 293.553C405.277 296.283 402.043 298.99 398.537 301.381C397.418 302.152 396.217 302.799 395.07 303.533L391.148 294.678C388.203 288.051 381.674 284.104 374.832 284.104C372.432 284.104 369.996 284.588 367.654 285.604C358.654 289.563 354.572 300.021 358.539 308.99L362.559 318.07C358.48 319.205 354.439 320.441 350.195 321.148C337.596 323.246 326.287 328.24 316.432 335.053L306.436 326.041C303.025 322.959 298.746 321.447 294.48 321.447C289.633 321.447 284.797 323.408 281.283 327.275C274.672 334.537 275.229 345.746 282.523 352.314L292.236 361.07C283.746 375.246 279.492 391.836 280.594 409.244L268.734 412.756C259.307 415.549 253.937 425.42 256.744 434.805C259.527 444.189 269.432 449.51 278.895 446.74L290.234 443.381C298.521 458.869 311.223 471.242 326.611 478.951L323.771 489.797C321.291 499.275 326.996 508.959 336.518 511.418C346.084 513.9 355.768 508.197 358.236 498.732L361.057 487.953C366.564 488.141 372.166 487.801 377.805 486.852C389.17 484.959 400.039 481.777 410.904 478.611L414.283 488.066C417.588 497.289 427.781 502.172 437.035 498.824C446.301 495.547 451.137 485.41 447.844 476.176L444.346 466.385C459.752 459.73 474.428 451.924 488.291 442.813L494.611 451.242C500.502 459.08 511.658 460.686 519.545 454.844C527.43 448.98 529.041 437.875 523.162 430.025L516.705 421.414C529.369 410.637 541.035 398.879 551.664 386.084L560.48 392.496C568.412 398.291 579.557 396.572 585.365 388.641C591.176 380.734 589.436 369.641 581.492 363.869L572.607 357.404C581.5 343.521 589.143 328.881 595.594 313.492L606.066 317.082C615.4 320.27 625.502 315.363 628.701 306.094C631.914 296.836 626.963 286.746 617.662 283.561L607.33 280.02C610.121 270.059 613.123 260.178 614.852 249.805C615.926 243.361 616.057 237.008 615.668 230.756ZM416 416C398.326 416 384 401.672 384 384C384 366.326 398.326 352 416 352C433.672 352 448 366.326 448 384C448 401.672 433.672 416 416 416ZM128 192C110.326 192 96 206.326 96 224C96 241.672 110.326 256 128 256C145.672 256 160 241.672 160 224C160 206.326 145.672 192 128 192Z" class="fa-primary"/></svg>

<svg xmlns="http://www.w3.org/2000/svg" viewBox="0 0 640 512"><!-- Font Awesome Pro 5.15.1 by @fontawesome - https://fontawesome.com License - https://fontawesome.com/license (Commercial License) --><defs><style>.fa-secondary{opacity:.4}</style></defs><path d="M361.11,65.26l-11.34,3.36a84,84,0,0,0-36.38-35.57l2.84-10.85a17.8,17.8,0,0,0-34.47-8.93l-2.82,10.78a83.25,83.25,0,0,0-16.74,1.1C250.83,27,240,30.22,229.1,33.39l-3.38-9.46a17.8,17.8,0,0,0-33.56,11.89l3.49,9.8a286.74,286.74,0,0,0-43.94,23.57l-6.32-8.43a17.9,17.9,0,0,0-24.94-3.6A17.69,17.69,0,0,0,116.84,82l6.45,8.61a286.59,286.59,0,0,0-34.95,35.33l-8.82-6.42a17.84,17.84,0,0,0-24.89,3.86,17.66,17.66,0,0,0,3.88,24.77l8.88,6.47a286.6,286.6,0,0,0-23,43.91l-10.48-3.59a17.73,17.73,0,1,0-11.59,33.52L32.67,232c-2.79,10-5.79,19.84-7.52,30.22a83.16,83.16,0,0,0-.82,19l-11.58,3.43a17.73,17.73,0,1,0,10.13,34l11.27-3.33a83.51,83.51,0,0,0,36.39,35.43l-2.88,11.06a17.81,17.81,0,0,0,34.48,8.92l2.87-11c1,0,2.07.26,3.1.26a83.39,83.39,0,0,0,45.65-13.88l8.59,8.8a17.77,17.77,0,0,0,25.56-24.7l-9.14-9.37a83.41,83.41,0,0,0,12.08-31.05,119.08,119.08,0,0,1,3.87-15.53l9,4.22a17.74,17.74,0,1,0,15.15-32.09l-8.8-4.11c.67-1,1.2-2.08,1.9-3.05a119.89,119.89,0,0,1,7.87-9.41,121.73,121.73,0,0,1,11.65-11.4,119.49,119.49,0,0,1,9.94-7.82c1.12-.77,2.32-1.42,3.47-2.15l3.92,8.85a17.86,17.86,0,0,0,16.32,10.58,18.14,18.14,0,0,0,7.18-1.5A17.71,17.71,0,0,0,281.46,203l-4-9.08a121.29,121.29,0,0,1,12.36-3.08A83.34,83.34,0,0,0,323.57,177l10,9a17.76,17.76,0,1,0,23.92-26.27l-9.72-8.76a83.12,83.12,0,0,0,11.65-48.18l11.85-3.51a17.73,17.73,0,1,0-10.15-34ZM128,256a32,32,0,1,1,32-32A32,32,0,0,1,128,256Zm80-96a16,16,0,1,1,16-16A16,16,0,0,1,208,160ZM416,352a32,32,0,1,0,32,32A32,32,0,0,0,416,352Z" class="fa-secondary"/><path d="M615.67,230.76l11.58-3.43a17.73,17.73,0,1,0-10.13-34l-11.27,3.33a83.61,83.61,0,0,0-36.39-35.43l2.88-11.06a17.81,17.81,0,0,0-34.48-8.91l-2.87,11c-1,0-2.07-.26-3.1-.26a83.32,83.32,0,0,0-45.65,13.89l-8.59-8.81a17.77,17.77,0,0,0-25.56,24.7l9.14,9.37a83.45,83.45,0,0,0-12.08,31.06,119.34,119.34,0,0,1-3.87,15.52l-9-4.22a17.74,17.74,0,1,0-15.15,32.09l8.8,4.11c-.67,1-1.2,2.08-1.89,3.05a117.71,117.71,0,0,1-7.94,9.47,119,119,0,0,1-11.57,11.33,121.59,121.59,0,0,1-10,7.83c-1.12.77-2.32,1.42-3.47,2.15l-3.92-8.85a17.86,17.86,0,0,0-16.32-10.58,18.14,18.14,0,0,0-7.18,1.5A17.71,17.71,0,0,0,358.54,309l4,9.08a118.71,118.71,0,0,1-12.36,3.08,83.34,83.34,0,0,0-33.77,13.9l-10-9a17.77,17.77,0,1,0-23.92,26.28l9.72,8.75a83.12,83.12,0,0,0-11.65,48.18l-11.86,3.51a17.73,17.73,0,1,0,10.16,34l11.34-3.36A84,84,0,0,0,326.61,479l-2.84,10.85a17.8,17.8,0,0,0,34.47,8.93L361.06,488a83.3,83.3,0,0,0,16.74-1.1c11.37-1.89,22.24-5.07,33.1-8.24l3.38,9.46a17.8,17.8,0,0,0,33.56-11.89l-3.49-9.79a287.66,287.66,0,0,0,43.94-23.58l6.32,8.43a17.89,17.89,0,0,0,24.94,3.6A17.68,17.68,0,0,0,523.16,430l-6.45-8.61a287.37,287.37,0,0,0,34.95-35.34l8.82,6.42a17.76,17.76,0,1,0,21-28.63l-8.88-6.46a287.17,287.17,0,0,0,23-43.92l10.48,3.59a17.73,17.73,0,1,0,11.59-33.52L607.33,280c2.79-10,5.79-19.84,7.52-30.21A83.27,83.27,0,0,0,615.67,230.76ZM416,416a32,32,0,1,1,32-32A32,32,0,0,1,416,416ZM128,192a32,32,0,1,0,32,32A32,32,0,0,0,128,192Z" class="fa-primary"/></svg>
